dist/assets/img/icons/instagram.svg

<svg width="26" height="27" viewBox="0 0 26 27" fill="none" xmlns="http://www.w3.org/2000/svg">
<path fill-rule="evenodd" clip-rule="evenodd" d="M13.0046 6.82358C9.31803 6.82358 6.33345 9.81136 6.33345 13.4946C6.33345 17.1812 9.32128 20.1657 13.0046 20.1657C16.6912 20.1657 19.6758 17.1779 19.6758 13.4946C19.6758 9.80811 16.6879 6.82358 13.0046 6.82358ZM13.0046 17.8246C10.6115 17.8246 8.67453 15.8866 8.67453 13.4946C8.67453 11.1027 10.6126 9.16462 13.0046 9.16462C15.3966 9.16462 17.3347 11.1027 17.3347 13.4946C17.3358 15.8866 15.3977 17.8246 13.0046 17.8246Z" fill="#83FFD3"/>
<path d="M21.499 6.56034C21.499 7.42129 20.8011 8.11922 19.9401 8.11922C19.0791 8.11922 18.3812 7.42129 18.3812 6.56034C18.3812 5.69938 19.0791 5.00145 19.9401 5.00145C20.8011 5.00145 21.499 5.69938 21.499 6.56034Z" fill="#83FFD3"/>
<path fill-rule="evenodd" clip-rule="evenodd" d="M18.3606 0.581667C15.9686 0.470086 10.0438 0.475503 7.64966 0.581667C5.54583 0.680249 3.69008 1.18832 2.194 2.68438C-0.0434228 4.92176 -0.0227838 7.85485 0.00629556 11.9874C0.00971261 12.473 0.0132462 12.9752 0.0132462 13.4948C0.0132462 13.981 0.0106418 14.451 0.00812317 14.9054C-0.0155501 19.177 -0.0316366 22.0796 2.194 24.3052C4.43552 26.5457 7.40099 26.5236 11.487 26.4933C11.9765 26.4896 12.4822 26.4859 13.0046 26.4859H13.0751C18.0302 26.4859 19.7513 26.4859 21.5142 25.8034C23.9224 24.8685 25.7403 22.7159 25.9179 18.8496C26.0306 16.4566 26.0241 10.533 25.9179 8.13887C25.7034 3.57487 23.254 0.806997 18.3606 0.581667ZM22.1468 22.6509C20.6373 24.1604 18.5894 24.1557 14.1659 24.1455C13.7863 24.1447 13.389 24.1438 12.9732 24.1438C12.7196 24.1438 12.4732 24.1439 12.2336 24.1441L12.2291 24.1441C7.35319 24.1476 5.30976 24.1491 3.7995 22.6347C2.22829 21.071 2.25428 18.6918 2.29199 15.2389C2.29809 14.6802 2.3045 14.0934 2.3045 13.4774C2.3045 12.9551 2.29982 12.4455 2.29527 11.9501C2.24771 6.77021 2.21452 3.15477 7.69733 2.87396L7.7595 2.87176C9.09053 2.82472 9.53646 2.80896 12.958 2.80896L13.0067 2.84146C13.5014 2.84146 13.9869 2.83702 14.4614 2.83269C19.5247 2.7864 23.3326 2.7516 23.5812 8.24287C23.6429 9.61326 23.657 10.0249 23.657 13.4937C23.6569 13.8056 23.6572 14.1068 23.6575 14.3977C23.662 19.1001 23.6639 21.1268 22.1468 22.6509Z" fill="#83FFD3"/>
</svg>

<svg width="26" height="27" fill="none" xmlns="http://www.w3.org/2000/svg"><path fill-rule="evenodd" clip-rule="evenodd" d="M13.005 6.824a6.67 6.67 0 00-6.672 6.67 6.67 6.67 0 006.672 6.672 6.67 6.67 0 006.67-6.671 6.67 6.67 0 00-6.67-6.671zm0 11a4.33 4.33 0 114.33-4.33 4.328 4.328 0 01-4.33 4.33z" fill="#83FFD3"/><path d="M21.499 6.56a1.559 1.559 0 11-3.118 0 1.559 1.559 0 013.118 0z" fill="#83FFD3"/><path fill-rule="evenodd" clip-rule="evenodd" d="M18.36.582C15.97.47 10.045.476 7.65.582c-2.104.098-3.96.606-5.456 2.102C-.043 4.922-.023 7.854.006 11.987a211.882 211.882 0 01.002 2.918c-.024 4.272-.04 7.175 2.186 9.4 2.242 2.24 5.207 2.219 9.293 2.188.49-.003.995-.007 1.518-.007h.07c4.955 0 6.676 0 8.44-.683 2.407-.934 4.225-3.087 4.403-6.953.113-2.393.106-8.317 0-10.711C25.703 3.575 23.254.807 18.36.582zm3.787 22.069c-1.51 1.51-3.558 1.505-7.981 1.494l-1.193-.001h-.744c-4.876.004-6.92.005-8.43-1.51-1.57-1.563-1.545-3.942-1.507-7.395.006-.559.013-1.146.013-1.762 0-.522-.005-1.032-.01-1.527-.047-5.18-.08-8.795 5.402-9.076l.063-.002c1.33-.047 1.776-.063 5.198-.063l.049.032c.494 0 .98-.004 1.454-.008 5.064-.047 8.872-.081 9.12 5.41.062 1.37.076 1.782.076 5.25v.905c.005 4.702.007 6.729-1.51 8.253z" fill="#83FFD3"/></svg>
